packages/sources/icons/src/vitamix/exchange_return.svg

<svg width="24" height="24" viewBox="0 0 24 24" fill="none" xmlns="http://www.w3.org/2000/svg">
<path fill-rule="evenodd" clip-rule="evenodd" d="M15 3.65142V6.84864L17.3979 5.25003L15 3.65142ZM13.5 6.17775L4.5 8.10632V15C4.5 15.4142 4.16421 15.75 3.75 15.75C3.33579 15.75 3 15.4142 3 15V7.50001C3 7.14636 3.24705 6.84076 3.59285 6.76666L13.5 4.6437V2.25001C13.5 1.65099 14.1676 1.29369 14.666 1.62597L19.166 4.62597C19.6113 4.92284 19.6113 5.57718 19.166 5.87405L14.666 8.87405C14.1676 9.20633 13.5 8.84903 13.5 8.25001V6.17775ZM10.5 17.821L19.5002 15.8924V8.99875C19.5002 8.58454 19.8359 8.24875 20.2502 8.24875C20.6644 8.24875 21.0002 8.58454 21.0002 8.99875V16.4987C21.0002 16.8524 20.7531 17.158 20.4073 17.2321L10.5 19.3551V21.75C10.5 22.349 9.83239 22.7063 9.33397 22.374L4.83397 19.374C4.38868 19.0772 4.38868 18.4228 4.83397 18.126L9.33397 15.126C9.83239 14.7937 10.5 15.151 10.5 15.75V17.821ZM9.00001 17.1514L6.60209 18.75L9.00001 20.3486V17.1514Z" fill="#001018"/>
</svg>

<svg width="24" height="24" fill="none" xmlns="http://www.w3.org/2000/svg"><path fill-rule="evenodd" clip-rule="evenodd" d="M15 3.651V6.85l2.398-1.599L15 3.651zm-1.5 2.527-9 1.928V15A.75.75 0 0 1 3 15V7.5a.75.75 0 0 1 .593-.733L13.5 4.644V2.25a.75.75 0 0 1 1.166-.624l4.5 3a.75.75 0 0 1 0 1.248l-4.5 3A.75.75 0 0 1 13.5 8.25V6.178zm-3 11.643 9-1.929V9A.75.75 0 1 1 21 9v7.5a.75.75 0 0 1-.593.733L10.5 19.355v2.395a.75.75 0 0 1-1.166.624l-4.5-3a.75.75 0 0 1 0-1.248l4.5-3a.75.75 0 0 1 1.166.624v2.071zm-1.5-.67L6.602 18.75 9 20.349V17.15z" fill="#001018"/></svg>
